Papirus/24x24/apps/forza-horizon-5.svg

<svg width="24" height="24" version="1.1" xmlns="http://www.w3.org/2000/svg">
 <rect x="2" y="2.5" width="20" height="20" ry="3" style="opacity:.2"/>
 <rect x="2" y="2" width="20" height="20" ry="3" style="fill:#e3536d"/>
 <path d="m10.002895 7.5c-1.6619939 0-2.5434139 1.401953-2.9999999 3h11c1.661994 0 3-1.338006 3-3zm-6.9999999 4 7.0351559 1.931641-1.0351559 2.068359 2.9999999-1 1-3h-2zm11 0-1 3 2-0.5 1-2.5zm3 0-1 2.5 2-0.5 1-2zm-11.134766 1.648438-1.8652339 4.351562 3.5-2 0.789062-1.576172z" style="opacity:.2"/>
 <path d="m10.002895 7c-1.6619938 0-2.5434138 1.401953-2.9999998 3h11c1.661994 0 3-1.338006 3-3zm-6.9999998 4 7.0351558 1.931641-1.0351558 2.068359 2.9999998-1 1-3h-2zm11 0-1 3 2-0.5 1-2.5zm3 0-1 2.5 2-0.5 1-2zm-11.134766 1.648438-1.865234 4.351562 3.5000001-2 0.789062-1.576172z" style="fill:#2f2f2f"/>
 <path d="m5 2c-1.6619983 0-3 1.3380017-3 3v0.5c0-1.6619983 1.3380017-3 3-3h14c1.661998 0 3 1.3380017 3 3v-0.5c0-1.6619983-1.338002-3-3-3z" style="fill:#ffffff;opacity:.1"/>
</svg>

<svg xmlns="http://www.w3.org/2000/svg" width="24" height="24" version="1.1">
 <rect style="opacity:0.2" width="20" height="20" x="2" y="2.5" ry="3"/>
 <rect style="fill:#e3536d" width="20" height="20" x="2" y="2" ry="3"/>
 <path style="fill:#ffffff;opacity:0.1" d="m5 2c-1.6619983 0-3 1.3380017-3 3v0.5c0-1.6619983 1.3380017-3 3-3h14c1.661998 0 3 1.3380017 3 3v-0.5c0-1.6619983-1.338002-3-3-3z"/>
 <path style="opacity:0.2" d="M 10,7.5 C 8.338,7.5 7.457,8.902 7,10.5 H 18 C 19.662,10.5 21,9.162 21,7.5 Z M 3,11.5 10.035,13.432 9,15.5 12,14.5 13,11.5 Z M 14,11.5 13,14.5 15,14 16,11.5 Z M 17,11.5 16,14 18,13.5 19,11.5 Z M 5.865,13.148 4,17.5 7.5,15.5 8.289,13.924 Z"/>
 <path style="fill:#2f2f2f" d="M 10,7 C 8.338,7 7.457,8.402 7,10 H 18 C 19.662,10 21,8.662 21,7 Z M 3,11 10.035,12.932 9,15 12,14 13,11 Z M 14,11 13,14 15,13.5 16,11 Z M 17,11 16,13.5 18,13 19,11 Z M 5.865,12.648 4,17 7.5,15 8.289,13.424 Z"/>
</svg>
